!!!!SEGMENT: Wil2044-Mirabile_misterium.krn
!!!id: Wil2044
!!!AGN: Motet
!!!SCT: Zenck (1950)
!!!voices: 4
!!!COM: Adrian Willaert
!!!OTL: Mirabile misterium
**kern	**kern	**kern	**kern
*part4	*part3	*part2	*part1
*staff4	*staff3	*staff2	*staff1
*I"Bassus	*I"Tenor	*I"Altus	*I"Superius
*I'B	*I'T	*I'A	*I'S
*clefF4	*clefGv2	*clefGv2	*clefG2
*k[]	*k[]	*k[]	*k[]
*C:	*C:	*C:	*C:
*M2/1	*M2/1	*M2/1	*M2/1
*met(C|)	*met(C|)	*met(C|)	*met(C|)
!!Section: Prima pars: Mirabile misterium
!!!OMD: Prima pars: Mirabile misterium
=1	=1	=1	=1
0G	0G	1r	0r
.	.	[1d	.
=2	=2	=2	=2
1.G	1.B-X	1d]	0r
.	.	[1d	.
2F	2A	.	.
=3	=3	=3	=3
0F	0A	2d]	0r
.	.	2c	.
.	.	[1c	.
=4	=4	=4	=4
0E	1r	1c]	0g
.	[1G	[1B	.
=5	=5	=5	=5
0r	1G]	1B]	1.g
.	[1B-i	[1d	.
.	.	.	2f
=6	=6	=6	=6
0r	2B-]	2d]	0f
.	2A	2c	.
.	[1A	[1c	.
=7	=7	=7	=7
0r	1A]	1c]	0e
.	[1G	[1B	.
=8	=8	=8	=8
1r	1G]	1B]	0d
1D	[1F	1A	.
=9	=9	=9	=9
1.D	1F]	1A	1.f
.	[1A	1F	.
2D	.	.	4e
.	.	.	4d
=10	=10	=10	=10
0C	2A]	0c	2e
.	4G	.	1f
.	4F	.	.
.	2G	.	.
.	2G	.	2e
=11	=11	=11	=11
2r	1F	1r	1f
2.A	.	.	.
.	2r	1c	2r
4G	.	.	.
4F	[2A	.	[2f
4E	.	.	.
=12	=12	=12	=12
2D	2A]	2d	2f]
2C	1c	1e	2g
1F	.	.	1a
.	4B	2d	.
.	4A	.	.
=13	=13	=13	=13
2.E	2B	2e	0g
.	1c	2e	.
4F	.	.	.
1G	.	2.d	.
.	2B	.	.
.	.	4c	.
=14	=14	=14	=14
2.F	2c	2A	2r
.	1F	2c	2.a
4E	.	.	.
2D	.	2d	.
.	.	.	4b
2C	2G	[2e	[2cc
=15	=15	=15	=15
1F	2.A	2e]	2cc]
.	.	2d	4b
.	4B	.	4a
1r	2c	1e	2g
.	2A	.	[2cc
=16	=16	=16	=16
2r	2c	2e	4cc]
.	.	.	4b
1D	2d	1f	1a
.	1B	.	.
2E	.	4e	2g#i
.	.	4d	.
=17	=17	=17	=17
2F	1A	2c	1a
2D	.	2.f	.
2F	1r	.	1r
.	.	4e	.
2G	.	[2d	.
=18	=18	=18	=18
1E	1r	2d]	1r
.	.	2c#i	.
1D	2r	2.d	2r
.	[2F	.	[2a
.	.	4c-y	.
=19	=19	=19	=19
0r	2F]	2A	2a]
.	2G	1e	2b
.	1A	.	2cc
.	.	2f	2a
=20	=20	=20	=20
0r	1G	2g	2b
.	.	2d	2b
.	2r	2f	2a
.	[2A	2f	[2cc
=21	=21	=21	=21
1.AA	4A]	1e	4cc]
.	4B	.	4b
.	1c	.	1a
.	.	1r	.
2BB	4B	.	4g
.	4A	.	4f
=22	=22	=22	=22
2C	2G	0r	2.e
2AA	2.c	.	.
.	.	.	4d
2C	.	.	2e
.	4B	.	.
2D	[2A	.	2f
=23	=23	=23	=23
1BB	2A]	0r	1d
.	2G#i	.	.
1AA	[1A	.	2.c
.	.	.	4d
=24	=24	=24	=24
2r	1A]	0r	2e
2D	.	.	2.f
1D	2r	.	.
.	.	.	4g
.	2F	.	[2a
=25	=25	=25	=25
1F	1A	0r	4a]
.	.	.	4b
.	.	.	1cc
1F	1c	.	.
.	.	.	4b
.	.	.	4a
=26	=26	=26	=26
2.E	1c	1r	1g
4F	.	.	.
2G	1B	1d	1r
2GG	.	.	.
=27	=27	=27	=27
1D	2r	1d	1f
.	1A	.	.
1D	.	1f	1a
.	4G	.	.
.	4F	.	.
=28	=28	=28	=28
2C	2G	1e	0cc
2AA	2.A	.	.
2.C	.	2r	.
.	4G	.	.
.	[2G	[2e	.
4BB	.	.	.
=29	=29	=29	=29
1AA	4G]	2e]	1cc
.	4F#i	.	.
.	4F#i	4d	.
.	4E	4c	.
2GG	1G	2d	1b
2G	.	[2e	.
=30	=30	=30	=30
2.A	0r	4e]	2r
.	.	4d	.
.	.	4c	1a
4G	.	4B	.
2F	.	2c	.
4E	.	2d	4g
4D	.	.	4f
=31	=31	=31	=31
2C	1r	2e	2g
2F	.	1d	2.a
1E	1G	.	.
.	.	.	4g
.	.	2c	[2g
=32	=32	=32	=32
1D	1A	1d	2g]
.	.	.	2f#i
2r	1c	1e	[1g
2C	.	.	.
=33	=33	=33	=33
1E	1B	2r	1g]
.	.	2e	.
1F	2r	2d	1r
.	[2A	[2c	.
=34	=34	=34	=34
2.E	2A]	2c]	0r
.	4G	2B	.
4D	4F	.	.
2E	2G	2c	.
2F	[2A	[2d	.
=35	=35	=35	=35
2C	4A]	4d]	0r
.	4G	4c	.
2E	1G	1c	.
1D	.	.	.
.	2F	2B	.
=36	=36	=36	=36
0C	1G	0c	2r
.	.	.	1e
.	2r	.	.
.	[2A	.	2e
=37	=37	=37	=37
1r	2A]	1c	1f
.	2F	.	.
2r	1G	2B	2d
[2C	.	[2c	[2e
=38	=38	=38	=38
2C]	1A	2c]	4e]
.	.	.	4c
2AA	.	2c	1f
2BB	1G	2d	.
2C	.	2c	2e
=39	=39	=39	=39
2.D	2.F	1A	2f
.	.	.	1a
4C	4E	.	.
4D	2F	1r	.
4E	.	.	.
[2F	2A	.	2f
=40	=40	=40	=40
2F]	1G	2r	1g
2E	.	1c	.
1F	1F	.	1a
.	.	2A	.
=41	=41	=41	=41
1E	2r	2B	1g
.	2G	2c	.
[1D	2B-i	2.d	2.f
.	[2A	.	.
.	.	4c	4e
=42	=42	=42	=42
1D]	2A]	4d	2f
.	.	4e	.
.	2F	1f	2a
1r	2c	.	1g
.	2c	2e	.
=43	=43	=43	=43
2r	2.F	1f	1f
1D	.	.	.
.	4G	.	.
.	4A	2r	1r
.	4F	.	.
2C	2G	[2e	.
=44	=44	=44	=44
2E	2C	2e]	2r
2F	2.c	2c	1a
1D	.	1d	.
.	4B	.	.
.	4B	.	2f
.	4A	.	.
=45	=45	=45	=45
2C	2.c	1e	2g
2AA	.	.	2a
.	4B	.	.
2.D	1A	1d	1f
4C	.	.	.
=46	=46	=46	=46
2AA	2r	2.c	2e
2.F	2.A	.	2.a
.	.	4B	.
.	.	2c	.
4E	4B	.	4g
2C	2c	2e	[2g
=47	=47	=47	=47
2D	2A	1d	4g]
.	.	.	4f
2BB-X	2B-X	.	1f
1C	1G	1c	.
.	.	.	2e
=48	=48	=48	=48
0FF	0F	2r	2f
.	.	2c	1a
.	.	2A	.
.	.	[2c	4g
.	.	.	4f
=49	=49	=49	=49
2r	1r	2c]	1e
1C	.	4B	.
.	.	4A	.
.	2r	4G	1r
.	.	4A	.
2BB	[2G	4B	.
.	.	4G	.
=50	=50	=50	=50
2C	2G]	1A	0r
2D	2F	.	.
2BB	2G	1r	.
[2C	2G	.	.
=51	=51	=51	=51
2C]	2E	0r	0r
4BB	4G	.	.
4AA	4F	.	.
2GG	4E	.	.
.	4D	.	.
2BB	[2G	.	.
=52	=52	=52	=52
1AA	4G]	2r	1r
.	4F#i	.	.
.	4F#i	1c	.
.	4E	.	.
1GG	1G	.	2r
.	.	2B	[2g
=53	=53	=53	=53
0r	0r	2c	2g]
.	.	2d	2f
.	.	2B	2g
.	.	2c	2a
=54	=54	=54	=54
1r	0r	4d	2f
.	.	4c	.
.	.	4B	1g
.	.	4A	.
2r	.	2G	.
[2G	.	[2B	4f
.	.	.	4e
=55	=55	=55	=55
2G]	0r	4B]	2d
.	.	4A	.
2F	.	1d	2f
2G	.	.	1e
2A	.	2c	.
=56	=56	=56	=56
2F	0r	2A	1d
1G	.	1B	.
.	.	.	1r
4F	.	4A	.
4E	.	4G	.
=57	=57	=57	=57
2D	1r	1A	2r
2F	.	.	1d
1E	2r	2.G	.
.	[2G	.	2c
.	.	4A	.
=58	=58	=58	=58
2D	2G]	2B	1d
1D	2F	2A	.
.	2G	2B	2.e
2C	2A	[2c	.
.	.	.	8d
.	.	.	8e
=59	=59	=59	=59
2D	2F	2c]	2f
2GG	2.G	2B	2d
1C	.	1c	4e
.	4F	.	4f
.	2E	.	4g
.	.	.	4e
=60	=60	=60	=60
1D	2D	2F	2f
.	2F	2B-i	1d
1AA	1E	1A	.
.	.	.	2c#i
=61	=61	=61	=61
0r	1D	2A	[0d
.	.	1B-i	.
.	2r	.	.
.	2G	4A	.
.	.	4G	.
=62	=62	=62	=62
1D	2A	1F	1d]
.	2B	.	.
2E	1c	1r	1r
2F	.	.	.
=63	=63	=63	=63
1G	2.B	1r	2r
.	.	.	2d
.	4A	.	.
2G	2B	2r	2e
2F	2c	2A	2f
=64	=64	=64	=64
1E	1G	2B	1g
.	.	2c	.
1D	1A	1d	2f
.	.	.	2f
=65	=65	=65	=65
2r	0r	2c	2g
2C	.	2A	2.a
2D	.	1B	.
.	.	.	4g#i
2E	.	.	4g#i
.	.	.	8f#i
.	.	.	8g#i
=66	=66	=66	=66
2.F	2r	2A	0a
.	2D	2.d	.
4G	.	.	.
2A	2F	.	.
.	.	4c	.
2AA	2E	2c	.
=67	=67	=67	=67
2BB	1G	2d	0r
2C	.	4c	.
.	.	4B	.
1D	2F	2A	.
.	2F	2A	.
=68	=68	=68	=68
2C	2G	2c	1r
2AA	2.A	2c	.
1BB	.	1d	2r
.	4G#i	.	.
.	4G#i	.	2d
.	4F#i	.	.
=69	=69	=69	=69
2AA	2A	2c	2e
2A	2A	2c	2f
2G	2B	2d	1g
2C	2c	[2e	.
=70	=70	=70	=70
1D	1A	4e]	2f
.	.	4d	.
.	.	4d	2f
.	.	8c	.
.	.	8d	.
2C	2c	[1e	2g
2AA	2c	.	[2a
=71	=71	=71	=71
1E	1B	0e_	4a]
.	.	.	4g#i
.	.	.	4g#i
.	.	.	8f#i
.	.	.	8g#i
[1AA	1A	.	[1a
=72	=72	=72	=72
1AA]	2r	1e]	1a]
.	1c	.	.
[1F	.	1r	2r
.	2c	.	[2a
=73	=73	=73	=73
2F]	2c	1.f	2a]
2F	2c	.	2a
2D	1d	.	2a
2D	.	2f	2a
=74	=74	=74	=74
1G	1B	2d	1b
.	.	2d	.
1C	1c	1e	2g
.	.	.	[2cc
=75	=75	=75	=75
1F	0A	2c	4cc]
.	.	.	4b
.	.	2.f	1a
1D	.	.	.
.	.	4e	.
.	.	[2d	4g
.	.	.	4f
=76	=76	=76	=76
1r	2r	2d]	1e
.	1A	2c	.
[1D	.	2.d	1d
.	2F	.	.
.	.	4e	.
=77	=77	=77	=77
2D]	2A	4f	0r
.	.	4d	.
2C	2c	1e	.
2E	2B	.	.
[2F	[2A	4d	.
.	.	4c	.
=78	=78	=78	=78
2F]	2A]	4d	0r
.	.	4c	.
2E	1G	1c	.
1D	.	.	.
.	2F	2B	.
=79	=79	=79	=79
[0C	[0G	2c	1r
.	.	1e	.
.	.	.	2r
.	.	2e	[2cc
=80	=80	=80	=80
1C]	1G]	2e	2cc]
.	.	2e	2cc
1r	1r	1f	2cc
.	.	.	2cc
=81	=81	=81	=81
1r	0r	2d	1dd
.	.	2.g	.
2r	.	.	2b
.	.	4f	.
[2C	.	[2e	[2cc
=82	=82	=82	=82
2C]	1r	2e]	4cc]
.	.	.	4b
2D	.	4d	1a
.	.	4c	.
2E	2r	2B	.
2E	[2c	2e	2g#i
=83	=83	=83	=83
2.F	2c]	1A	0a
.	2c	.	.
4E	.	.	.
1F	2c	2r	.
.	2c	[2f	.
=84	=84	=84	=84
2D	1d	4f]	0r
.	.	4e	.
2.G	.	4d	.
.	.	4c	.
.	2B	2d	.
4F	.	.	.
4E	[2c	[2e	.
4D	.	.	.
=85	=85	=85	=85
2C	4c]	2e]	0r
.	4B	.	.
2D	1A	1d	.
1E	.	.	.
.	2G	2c#i	.
=86	=86	=86	=86
1D	1A	2d	2r
.	.	2.f	1a
2.D	2r	.	.
.	.	4e	.
.	[2A	2d	2f
4E	.	.	.
=87	=87	=87	=87
2F	2A]	2c	2a
2C	2G	2e	2cc
2G	2B	2d	2b
[2F	[2c	[2f	[2a
=88	=88	=88	=88
2F]	2c]	4f]	4a]
.	.	4e	4g
2G	2B	4d	1g
.	.	4c	.
1D	1A	1d	.
.	.	.	2f#i
=89	=89	=89	=89
1GG	1G	1d	1g
1C	2r	2r	1g
.	[2c	[2e	.
=90	=90	=90	=90
2AA	2c]	2e]	2a
2A	2A	2c	2cc
2A	2c	2e	2cc
2G	[2d	2g	2b
=91	=91	=91	=91
2.A	2d]	2f	1.a
.	2c	2.e	.
4G	.	.	.
2F	1d	.	.
.	.	4d	.
2G	.	[2d	[2b
=92	=92	=92	=92
1E	1G	2d]	4b]
.	.	.	4a
.	.	2c#i	1g
1D	1A	1d	.
.	.	.	2f#i
=93	=93	=93	=93
00GGl	00Gl	00dl	00gl
==	==	==	==
*-	*-	*-	*-
!!!system-decoration: [*]
!!!RDF**kern: i = editorial accidental
!!!RDF**kern: l = terminal long
!!!ENC: Benjamin Ory
!!!END: 2022/5/9
!!!EED: Benjamin Ory
!!!EEV: 2022/05/09
!!!YEC: Copyright 2022 Benjamin Ory, All Rights Reserved
!!!ONB: Translated from MusicXML on 2022/05/09
